X: 1
T:The Fair Girl Making Hay
B:Joyce, P. W.; "Old Irish Folk Music and Songs"
R:song air/single jig
L:1/8
M:6/8
K:G
dc|B2 d G2 A|B2 g f2 d|cBA G2 G|(G3 G2) A|
B2 d efd|g2 b a2 f|gfe dcB|(A3 A2) c|
B2 d efd|g3 b2 g|fge dcB|(c3 c2) A|
B2 d G2 A|B3 g2 d|cBA G2 G|(G3 G2)||
